!!!COM: Palestrina, Giovanni Perluigi da
!!!OPR: Missa In festis Apostolorum (II)
!!!OMD: Gloria
!!!OTL: Domine Deus Rex
**kern	**kern	**kern	**kern
*Itenor	*Itenor	*Icalto	*Icant
!Tenor 2	!Tenor 1	!Altus	!Cantus
*clefGv2	*clefGv2	*clefG2	*clefG2
*k[]	*k[]	*k[]	*k[]
*D:dor	*D:dor	*D:dor	*D:dor
*M4/2	*M4/2	*M4/2	*M4/2
=34	=34	=34	=34
0r	1r	1e	0r
.	1A	2e	.
.	.	2e	.
=35	=35	=35	=35
0r	2A	1.f	1r
.	2A	.	.
.	1B-	.	1d
.	.	4e	.
.	.	4d	.
=36	=36	=36	=36
2r	1A	1e	1c
2A	.	.	.
2A	1D	1d	1f
2A	.	.	.
=37	=37	=37	=37
1B-	2r	1d	1g
.	1d	.	.
1A	.	2e	1a
.	2c#	2e	.
=38	=38	=38	=38
2D	1d	1f	[0a
2.d	.	.	.
.	1A	1e	.
4c#	.	.	.
2c#	.	.	.
=39	=39	=39	=39
1d	1D	2r	0a]
.	.	2.f	.
1A	2r	.	.
.	.	4e	.
.	[2F	2c	.
=40	=40	=40	=40
1r	4F]	2d	0r
.	4E	.	.
.	2C	2e	.
2r	2D	2f	.
[2c	2E	2e	.
=41	=41	=41	=41
4c]	2F	2A	0r
4B	.	.	.
2G	2E	2e	.
2A	1D	1f	.
2B	.	.	.
=42	=42	=42	=42
1c	1C	1e	0cc
2A	2r	1e	.
[2e	[2c	.	.
=43	=43	=43	=43
4e]	4c]	1r	1g
4d	4B	.	.
2B	2G	.	.
2c	2A	2r	1f
2d	2B-	[2f	.
=44	=44	=44	=44
1B-	1G	2f]	1g
.	.	2e	.
2c	2.F	1f	1a
[2d	.	.	.
.	4G	.	.
=45	=45	=45	=45
2d]	1A	2e	0a
2c#	.	2e	.
1d	1D	2f	.
.	.	2f	.
=46	=46	=46	=46
2.G	2r	1g	0r
.	1d	.	.
4F	.	.	.
1E	.	2r	.
.	2c#	[2g	.
=47	=47	=47	=47
1D	1d	2g]	1r
.	.	2f	.
1r	1G	2.g	1dd
.	.	4f	.
=48	=48	=48	=48
1r	1A	1e	1cc#
2r	2.B-	1d	1dd
[2d	.	.	.
.	4B-	.	.
=49	=49	=49	=49
2d]	1G	2r	1dd
2B-	.	1g	.
1c	1r	.	1g
.	.	2e	.
=50	=50	=50	=50
2.F	2r	1f	1a
.	1c	.	.
4G	.	.	.
1A	.	2e	1cc
.	2A	[2f	.
=51	=51	=51	=51
0r	1B-	2f]	1dd
.	.	4e	.
.	.	4d	.
.	2A	2e	1cc
.	2A	2f	.
=52	=52	=52	=52
2r	2.G	2g	1b-
1d	.	2g	.
.	4G	.	.
.	1A	1e	[1a
2c#	.	.	.
=53	=53	=53	=53
1d	1r	2.f	1a]
.	.	4e	.
2B	2r	2d	1g
2c	[2c	2e	.
=54	=54	=54	=54
2.G	2c]	1d	0g
.	2B	.	.
4G	.	.	.
1C	1c	1e	.
=55	=55	=55	=55
2F	2A	1.f	[0a
4D	2d	.	.
4E	.	.	.
4F	2.c	.	.
4G	.	.	.
4A	.	4e	.
4B	4B	4d	.
=56	=56	=56	=56
4c	2A	2e	1a_
4A	.	.	.
1d	2D	2f	.
.	1A	1e	1a_
2c#	.	.	.
=57	=57	=57	=57
1.d	1D	1.f	0a]
.	2D	.	.
2d	2D	2f	.
=58	=58	=58	=58
[0c#	[0A	[0e	[0a
=59	=59	=59	=59
0c#]	0A]	0e]	0a]
*-	*-	*-	*-
!!!CDT: 1525/^1526/-1594/2/2
!!!OCY: Italia
!!!AGN: Mass (Paraphrase)
!!!AST: renaissance, vocal
!!!ASW: Gregorian Mass
!!!PWK: Masses, Book Mantuan II
!!!RNB: Cadence finals: A
!!!YOR: Le Opere Complete, v. 19, p. 1
!!!YOO: Rome, Italy: Fratelli Scalera
!!!END: 1992//
!!!EED: John Miller
!!!YEC: Copyright 2000, John Miller
!!!YEN: United States of America
!!!YEM: Rights to all derivative electronic formats reserved.
!!!YEM: Refer to licensing agreement for further details.
!!!YEM: This file must be accompanied by the licensing agreement.
!!!YEM: A copy of the licensing agreement may be found at http://www.music-cog.ohio-state.edu/HumdrumDatabases/Palestrina/license.txt
!!!EMD: converted to Humdrum by Bret Aarden
